X: 1
T: the Baldovan Reel
C: Betty Lowe
B: Baldovan Set Dances
R: reel
Z: 2007 John Chambers <jc:trillian.mit.edu>
M: C|
L: 1/8
K: G
Bd \
| "G"g2G2 GBAG | "G"e2d2 d2Bd | "G"g2G2 "Em"GBAG | "Am"B2A2 "D7"A2Bd \
| "G"g2G2 GBAG | "G"e2d2 d2GA | "G"BdcB "D7"AcBA | "G"G2B2 G2 :|
|: BA \
| "G"B2g2 d2g2 | "G"BcdB G2dB | "Am"c2a2 A2a2 | "D7"fgaf d2dc \
| "G"B2g2 d2g2 | "G"BcdB G2cd | "C"edcB "D7"AGF[AD] | "G"G2B2 G2 :|
